X:143
T:Woman of the House
M:4/4
L:1/8
R:Reel
K:G
"G" B2 BA B2BA | GABd eBdB | "Ami" A2 AB A2Bd | "C"eBgf "D"edBA |
"G"AB2A B2BA | GABd eBdB | "Emi"G2BG "C"A2GA| "D"BGAG "G"EGD2:|
|:"D" f3d "C/D" edBd| "D" effd "C/D" edBA | "D"f3d edBd| "A"eaag abag |
"D" f2fd edBd| "G" gefd "C" edBA |"G" G2BG "Ami" A2GA | "D" BGAG "G"EGD2
:|
